X:1
T:Title
%%score ( 1 2 ) { 3 | 4 }
L:1/8
Q:1/4=113
M:4/4
K:D
V:1 treble nm="Grand Piano, Staff"
V:2 treble 
V:3 treble nm="Choir Pad, Pax, CMD"
V:4 bass 
V:1
 [FB]2 [Gd]2- [Gd][Gc] [GB]2 | [G^A]2 [FB]2- [FB][DF] [DF]2 | [D^G]2 [DA]2 [DF]2 [CA]2- | %3
w: By~John~Kinross,~1887 * * * *|||
 [CA][CG] [DF]6 | [FB]2 [Gd]2- [Gd][Gc] [GB]2 | [G^A]2 [FB]2- [FB][EF] [DF]2 | %6
w: |||
 [D^G]2 [DA]2 [DF]2 [CA]2- | [CA][CG] [DF]6 | [DF]2 [FA]2- [FA][F=c] [FB]2 | %9
w: |||
 [FA]2 [FA]2- [FA]G G2 | [GB]2 [G=c]2- [Gc][Ge] [Fd]2 | [A=c]2 [GB]6 | %12
w: |||
 [AB]2 [Ge]2- [Ge][Gd] [Gc]2 | [GB]2 [F^A]2 [Fc]2 [FB]2 | z4 B2 z2 | [F^A]2 [FB]6- | [FB]2 z2 z4 |] %17
w: |||||
V:2
 x8 | x8 | x8 | x8 | x8 | x8 | x8 | x8 | x8 | x8 | x8 | x8 | x8 | x8 | [FA][EG] [DF]2 EF [GB]2 | %15
 x8 | x8 |] %17
V:3
 D2 E2- EE E2 | E2 D2- D[K:bass]B, B,2 | B,2 A,2 A,2 A,2- | A,A, A,6 | B,2 B,2- B,[K:treble]C D2 | %5
 C2 B,2- B,[K:bass]^A, A,2 | =F,2 ^F,2 A,2 E,2- | E,A, A,6 | A,B,[K:treble] =C2- CA, D2 | %9
 =C2 C2- CB, B,2 | D2 =C2- CC A,2 | D2 D6 | ^D2 E2- EF E2 | D2 C2[K:bass] ^A,2 B,2 | %14
 B,2 B,2 C[K:treble]D E2 | E2 D6- | D2 z2 z4 |] %17
V:4
 B,2 B,2- B,B, B,2 | B,2 B,4 z2 | =F,2 ^F,2 D,2 A,,2- | A,,E, D,6 | D,2 E,2- E,E, E,2 | %5
 E,2 D,2- D,C, B,,2 | B,,2 A,,2 A,,2 A,,2- | A,,A,, D,6 | D,2 D,2- D,D, D,2 | D,2 G,2- G,G, G,2 | %10
 G,=F, E,2- E,=C, D,2 | F,2 G,6 | F,2 E,2- E,E, E,2 | E,2 E,2 E,2 D,2 | E,2 F,2 F,2 F,2 | %15
 F,2 B,,6- | B,,2 z2 z4 |] %17

